X: 305747
T: COTILLION No. 19. TREMONT SETT tune 3
C:
%R: reel
B: Elias Howe "The Musician's Companion" Part 3 1844 p.120 #3
S: http://imslp.org/wiki/The_Musician's_Companion_(Howe,_Elias)
Z: 2015 John Chambers <jc:trillian.mit.edu>
M: 2/4
L: 1/16
K: G	% Actually starts in Em
% - - - - - - - - - - - - - - - - - - - - - - - - - - - - -
cd |\
e2B2 B2Ac | BAGF E2D2 | G3A GABc | (d4 B2)cd |\
e2B2 B2Ac | BAGF E2FG | A2F2 D2EF | G4- G2 H:|
B2d2 e2f2 | g2B2 B2GA | B2d2 e2f2 | g4- gfe^d |\
e2B2 B2Ac | BAGF E2FG | A2F2 D2EF | G4- "^D.C."G2 :|
% - - - - - - - - - - Dance description - - - - - - - - - -
%%begintext align
%% First lady balance to the gent on her right,
%% and swing who she pleases,
%% and balance to next gent,
%% and so on th her partner,
%% then balance with him.
%% Next lady, &c.
%%endtext
% - - - - - - - - - - - - - - - - - - - - - - - - - - - - -
%%sep 1 1 300


